icon-themes/breeze_svg/res/minus.svg

<svg viewBox="0 0 11 11" xmlns="http://www.w3.org/2000/svg"><path d="m1 5v1h2 2 1 4v-1h-2-2-1-2z" fill="#4d4d4d"/></svg>

<svg xmlns="http://www.w3.org/2000/svg" viewBox="0 0 11 11">
 <path 
     style="fill:#4d4d4d" 
     d="M 1 5 L 1 6 L 3 6 L 5 6 L 6 6 L 10 6 L 10 5 L 8 5 L 6 5 L 5 5 L 3 5 L 1 5 z "
     />
 </svg>
